brandFactory_export/2.Regular/Cocinar_2Regular.svg

<?xml version="1.0" encoding="UTF-8"?>
<svg width="24px" height="24px" viewBox="0 0 24 24" version="1.1" xmlns="http://www.w3.org/2000/svg" xmlns:xlink="http://www.w3.org/1999/xlink">
    <title>2.Regular/Cocinar_2Regular</title>
    <g id="Symbols" stroke="none" stroke-width="1" fill="none" fill-rule="evenodd">
        <g id="2.Regular/Cocinar_2Regular" fill="#5CB615" fill-rule="nonzero">
            <path d="M21.1226891,17.6588235 C21.8823529,17.6487395 22.2689076,17.2319328 22.2689076,16.4184874 C22.2689076,15.6084034 21.8890756,15.194958 21.1462185,15.1915966 C21.1327731,15.1915966 21.1193277,15.1848739 21.1092437,15.1848739 C21.0756303,16.0386555 21.0016807,16.8722689 20.8638655,17.6521008 C20.907563,17.6554622 20.9579832,17.6588235 20.9848739,17.6621849 L21.1226891,17.6621849 L21.1226891,17.6588235 Z M20.5243697,11.3294118 C20.7260504,11.1344538 20.8268908,10.8453782 20.8268908,10.4689076 C20.8268908,10.092437 20.7260504,9.80336134 20.5243697,9.60504202 C20.3260504,9.41680672 20.0470588,9.32268908 19.6907563,9.32268908 C19.6033613,9.32268908 19.5226891,9.32941176 19.4453782,9.3394958 C19.4319328,9.34285714 19.4285714,9.3394958 19.4218487,9.32941176 C19.4117647,9.31932773 19.4151261,9.31596639 19.4184874,9.29915966 C19.4352941,9.17478992 19.4487395,9.04705882 19.4487395,8.9092437 C19.4487395,8.3512605 19.297479,7.9210084 18.9983193,7.62857143 C18.7092437,7.34957983 18.2957983,7.20840336 17.7613445,7.20840336 C17.2302521,7.20840336 16.8168067,7.34957983 16.5277311,7.63193277 C16.3697479,7.78991597 16.2554622,7.98823529 16.1815126,8.22352941 C16.1781513,8.2302521 16.1747899,8.23697479 16.1680672,8.24033613 C16.1613445,8.24369748 16.1546218,8.24369748 16.1445378,8.24369748 C16.0268908,8.22689076 15.8991597,8.21344538 15.7680672,8.21344538 C15.2369748,8.21344538 14.8201681,8.35462185 14.5344538,8.63697479 C14.4436975,8.72436975 14.3731092,8.82184874 14.3092437,8.93277311 C14.2957983,8.95630252 14.292437,8.95966387 14.2655462,8.96302521 C14.2386555,8.96638655 14.2352941,8.96302521 14.2151261,8.94285714 C13.9596639,8.6907563 13.5831933,8.56302521 13.1058824,8.56302521 C12.6285714,8.56302521 12.2554622,8.6907563 12,8.94285714 C11.912605,9.0302521 11.8453782,9.13781513 11.7915966,9.25210084 C11.7915966,9.25210084 11.7243697,9.29243697 11.6806723,9.2789916 C11.6235294,9.25882353 11.6033613,9.18823529 11.6033613,9.18823529 C11.5630252,8.86890756 11.4689076,8.59327731 11.2806723,8.40840336 C11.0487395,8.18319328 10.7159664,8.06890756 10.2890756,8.06890756 C9.86218487,8.06890756 9.53277311,8.18319328 9.29747899,8.40840336 C9.17310924,8.53277311 9.08235294,8.69411765 9.01848739,8.88235294 C9.01512605,8.88907563 9.01176471,8.89915966 9.00168067,8.89915966 C8.98151261,8.89915966 8.97142857,8.88571429 8.96470588,8.88571429 C8.77647059,8.74117647 8.55798319,8.67394958 8.2487395,8.67394958 C7.89579832,8.67394958 7.61344538,8.76806723 7.42184874,8.95630252 C7.32436975,9.05378151 7.25042017,9.17815126 7.2,9.32268908 C7.19663866,9.33613445 7.19327731,9.34957983 7.17647059,9.35966387 C7.15966387,9.3697479 7.14621849,9.36638655 7.12268908,9.36302521 C7.05546218,9.35294118 6.98487395,9.34957983 6.91092437,9.34957983 C6.55462185,9.34957983 6.27563025,9.44369748 6.08739496,9.63193277 C6.03697479,9.68235294 6.00336134,9.74285714 5.9697479,9.80336134 C5.95294118,9.83361345 5.94621849,9.85042017 5.91596639,9.86386555 C5.88235294,9.87394958 5.85546218,9.86722689 5.82184874,9.85378151 C5.7210084,9.82016807 5.6,9.79663866 5.46890756,9.79663866 C5.17310924,9.79663866 4.94453782,9.87394958 4.78319328,10.0319328 C4.73277311,10.0823529 4.68907563,10.1428571 4.65546218,10.210084 C4.63529412,10.2470588 4.62184874,10.2672269 4.58487395,10.2840336 C4.54453782,10.3042017 4.51764706,10.2941176 4.47058824,10.287395 C4.38991597,10.2705882 4.30252101,10.2638655 4.20840336,10.2638655 C3.91596639,10.2638655 3.68403361,10.3445378 3.52605042,10.4991597 C3.36134454,10.6605042 3.27731092,10.8991597 3.27731092,11.2084034 L3.27731092,11.6218487 L9.57983193,11.6218487 C9.59327731,11.6184874 9.61008403,11.6151261 9.62352941,11.6151261 L11.4588235,11.6151261 C11.4722689,11.6151261 11.4890756,11.6184874 11.502521,11.6218487 L19.7008403,11.6218487 C20.0537815,11.6084034 20.3294118,11.5142857 20.5243697,11.3294118 Z M19.7411765,14.0823529 C19.7411765,14.0151261 19.7411765,13.4806723 19.7445378,13.0134454 L19.707563,13.0134454 C19.7008403,13.0134454 19.697479,13.0168067 19.6907563,13.0168067 L15.7714286,13.0168067 L14.1378151,13.0201681 L11.5495798,13.0201681 C11.512605,13.0201681 11.4823529,13.0168067 11.4487395,13.0134454 L9.63697479,13.0134454 C9.60336134,13.0168067 9.57310924,13.0201681 9.53277311,13.0201681 L6.91428571,13.0201681 L3.89243697,13.0403361 L3.89243697,13.9109244 C3.91596639,19.4067227 5.05546218,21.2621849 8.40672269,21.2621849 C8.59495798,21.2621849 8.77310924,21.2521008 8.94789916,21.2386555 L14.6386555,21.2386555 C15.0823529,21.2655462 15.4117647,21.2621849 15.7613445,21.2386555 L15.8857143,21.2386555 C15.9193277,21.2319328 15.9495798,21.2252101 15.9865546,21.2218487 C18.7159664,20.9394958 19.697479,19.0705882 19.7411765,14.0823529 L19.7411765,14.0823529 Z M2.72605042,17.6588235 C2.73613445,17.6588235 2.7697479,17.6554622 2.78655462,17.6554622 C2.65210084,16.902521 2.57815126,16.0789916 2.54117647,15.194958 C1.80504202,15.2084034 1.42857143,15.6184874 1.42857143,16.4218487 C1.42857143,17.2319328 1.81176471,17.6487395 2.57142857,17.6621849 L2.72605042,17.6621849 L2.72605042,17.6588235 Z M21.1529412,13.789916 C22.3092437,13.8 23.6571429,14.4957983 23.6571429,16.4218487 C23.6571429,18.3445378 22.302521,19.0470588 21.1428571,19.0638655 L20.9445378,19.0638655 C20.8806723,19.0605042 20.6621849,19.0470588 20.507563,19.0336134 C19.8857143,20.912605 18.6756303,22.2907563 16.312605,22.5932773 C16.2386555,22.6235294 16.1579832,22.6403361 16.0739496,22.6403361 L15.8117647,22.6403361 C15.6504202,22.6537815 15.4453782,22.6638655 15.2235294,22.6638655 C15.0016807,22.6638655 14.7966387,22.6504202 14.594958,22.6369748 L8.99495798,22.6403361 C8.83361345,22.6537815 8.62521008,22.6638655 8.40672269,22.6638655 C5.38151261,22.6638655 3.84537815,21.312605 3.1092437,19.0302521 C2.92773109,19.0537815 2.82016807,19.0605042 2.75294118,19.0638655 L2.54453782,19.0638655 C1.38487395,19.0470588 0.0302521008,18.3445378 0.0302521008,16.4218487 C0.0302521008,14.512605 1.35462185,13.8168067 2.50420168,13.7932773 L2.50420168,12.8084034 C2.4302521,12.7579832 2.35630252,12.7008403 2.29243697,12.6369748 C2.0302521,12.3747899 1.88235294,12.0151261 1.88235294,11.6420168 L1.88235294,11.2016807 C1.88235294,10.3243697 2.2487395,9.78319328 2.55462185,9.48403361 C2.82016807,9.22184874 3.27058824,8.89915966 4.05042017,8.9394958 C4.34285714,8.57983193 4.79327731,8.35798319 5.43529412,8.44537815 C5.65714286,8.12941176 6.04369748,7.95462185 6.41344538,7.98151261 C6.42352941,7.96806723 6.4605042,8.00168067 6.47058824,7.98823529 C6.87058824,7.44033613 7.33109244,7.26890756 8.23865546,7.26890756 C8.31260504,7.26890756 8.42689076,7.28907563 8.50084034,7.29579832 C8.8605042,6.99327731 9.42857143,6.57647059 10.3058824,6.57647059 C11.2033613,6.57647059 11.7680672,6.98991597 12.1243697,7.29579832 C12.4033613,7.21176471 12.7260504,7.16134454 13.0991597,7.16134454 C13.4420168,7.16134454 13.7445378,7.20504202 14.0033613,7.2789916 C14.3361345,7.07058824 14.7798319,6.88907563 15.3613445,6.83193277 C15.4218487,6.75798319 15.4857143,6.68739496 15.5529412,6.62352941 C15.9327731,6.25042017 16.6252101,5.80672269 17.7512605,5.80672269 C18.8806723,5.80672269 19.5697479,6.25042017 19.9529412,6.62352941 C20.2554622,6.91596639 20.6016807,7.39327731 20.7529412,8.11932773 C21.0756303,8.25378151 21.3142857,8.43193277 21.4823529,8.59663866 C21.8151261,8.91932773 22.2117647,9.50756303 22.2117647,10.4689076 C22.2117647,11.4336134 21.8117647,12.0184874 21.4789916,12.3445378 C21.3848739,12.4319328 21.2638655,12.5260504 21.1294118,12.6134454 L21.1294118,13.7932773 C21.1327731,13.7932773 21.1361345,13.789916 21.1428571,13.789916 L21.1529412,13.789916 L21.1529412,13.789916 Z M11.0789916,2.49243697 C10.302521,2.71428571 10.010084,3.19831933 10.205042,3.93781513 L10.2420168,4.07563025 L12.6285714,3.39663866 C12.605042,3.34957983 12.5714286,3.30588235 12.5546218,3.25210084 C12.3462185,2.52941176 11.8521008,2.27058824 11.0789916,2.49243697 L11.0789916,2.49243697 Z M3.15966387,7.5210084 C2.85714286,7.5210084 2.57478992,7.31932773 2.4907563,7.01344538 C2.38655462,6.64033613 2.60168067,6.25042017 2.97142857,6.14621849 L8.90420168,4.45546218 L8.8605042,4.30084034 C8.55798319,3.16806723 8.8605042,1.66218487 10.6991597,1.14117647 C12.5344538,0.613445378 13.5663866,1.7394958 13.8890756,2.85882353 C13.9058824,2.91596639 13.902521,2.97310924 13.9058824,3.0302521 L19.7344538,1.3697479 C20.1109244,1.26554622 20.4907563,1.48067227 20.5915966,1.85378151 C20.6957983,2.22689076 20.4806723,2.61680672 20.1109244,2.7210084 L3.34453782,7.49411765 C3.28739496,7.51428571 3.22352941,7.5210084 3.15966387,7.5210084 Z" id="Cocinar_2Regular"></path>
        </g>
    </g>
</svg>

<svg width="24" height="24" viewBox="0 0 24 24" xmlns="http://www.w3.org/2000/svg"><path d="M21.123 17.659c.76-.01 1.146-.427 1.146-1.24 0-.81-.38-1.224-1.123-1.227-.013 0-.027-.007-.037-.007a18.473 18.473 0 01-.245 2.467l.12.01h.139v-.003zm-.599-6.33c.202-.195.303-.484.303-.86 0-.377-.1-.666-.303-.864-.198-.188-.477-.282-.833-.282-.088 0-.168.006-.246.016-.013.004-.016 0-.023-.01-.01-.01-.007-.013-.004-.03.017-.124.03-.252.03-.39 0-.558-.15-.988-.45-1.28-.289-.28-.702-.42-1.237-.42-.53 0-.944.14-1.233.423a1.424 1.424 0 00-.346.592c-.004.006-.007.013-.014.016-.007.004-.013.004-.023.004a2.669 2.669 0 00-.377-.03c-.531 0-.948.14-1.234.423-.09.087-.16.185-.225.296-.013.023-.017.027-.043.03-.027.003-.03 0-.05-.02-.256-.252-.633-.38-1.11-.38-.477 0-.85.128-1.106.38a1.088 1.088 0 00-.208.31s-.068.04-.111.026c-.057-.02-.078-.09-.078-.09-.04-.32-.134-.596-.322-.78-.232-.226-.565-.34-.992-.34-.427 0-.756.114-.992.34a1.207 1.207 0 00-.279.473c-.003.007-.006.017-.016.017-.02 0-.03-.013-.037-.013-.189-.145-.407-.212-.716-.212-.353 0-.636.094-.827.282a.958.958 0 00-.222.367c-.003.013-.007.027-.024.037-.016.01-.03.006-.053.003a1.432 1.432 0 00-.212-.013c-.356 0-.635.094-.824.282a.74.74 0 00-.117.171c-.017.03-.024.047-.054.06-.034.01-.06.004-.094-.01a1.125 1.125 0 00-.353-.056c-.296 0-.524.077-.686.235a.687.687 0 00-.128.178c-.02.037-.033.057-.07.074-.04.02-.067.01-.114.003a1.29 1.29 0 00-.263-.023c-.292 0-.524.08-.682.235-.165.162-.249.4-.249.71v.413H9.58a.197.197 0 01.044-.007h1.835c.013 0 .03.003.044.007H19.7c.353-.014.628-.108.823-.293zm-.783 2.753c0-.067 0-.601.004-1.069h-.037c-.007 0-.01.004-.017.004h-3.92l-1.633.003H11.55c-.037 0-.068-.003-.101-.007H9.637c-.034.004-.064.007-.104.007H6.914l-3.022.02v.87c.024 5.497 1.163 7.352 4.515 7.352.188 0 .366-.01.54-.023h5.692a8.31 8.31 0 001.122 0h.125c.033-.007.064-.014.1-.017 2.73-.283 3.711-2.151 3.755-7.14zM2.726 17.66c.01 0 .044-.004.06-.004a18.523 18.523 0 01-.245-2.46c-.736.013-1.112.423-1.112 1.227 0 .81.383 1.227 1.142 1.24h.155v-.003zm18.427-3.87c1.156.011 2.504.707 2.504 2.633 0 1.923-1.354 2.625-2.514 2.642h-.198a16.455 16.455 0 01-.437-.03c-.622 1.879-1.832 3.257-4.195 3.56a.63.63 0 01-.24.046h-.261a7.248 7.248 0 01-1.217-.003l-5.6.003c-.161.014-.37.024-.588.024-3.025 0-4.562-1.351-5.298-3.634-.181.024-.289.03-.356.034h-.208c-1.16-.017-2.515-.72-2.515-2.642 0-1.91 1.325-2.605 2.474-2.629v-.985a1.476 1.476 0 01-.212-.171 1.41 1.41 0 01-.41-.995v-.44c0-.878.367-1.419.673-1.718.265-.262.716-.585 1.495-.545.293-.36.743-.581 1.385-.494.222-.316.609-.49.978-.463.01-.014.048.02.058.006.4-.548.86-.72 1.768-.72.074 0 .188.021.262.028.36-.303.928-.72 1.805-.72.897 0 1.462.414 1.818.72.28-.084.602-.135.975-.135.343 0 .646.044.904.118.333-.208.777-.39 1.358-.447.06-.074.125-.145.192-.208.38-.374 1.072-.817 2.198-.817 1.13 0 1.819.443 2.202.817.302.292.649.77.8 1.495.323.135.561.313.73.478.332.322.729.91.729 1.872 0 .965-.4 1.55-.733 1.876a2.633 2.633 0 01-.35.268v1.18c.004 0 .007-.003.014-.003h.01zM11.079 2.493c-.776.222-1.069.706-.874 1.446l.037.138 2.387-.68c-.024-.046-.058-.09-.074-.144-.209-.723-.703-.981-1.476-.76zm-7.92 5.029a.696.696 0 01-.668-.508.704.704 0 01.48-.867l5.933-1.69-.043-.155c-.303-1.133 0-2.639 1.838-3.16 1.835-.528 2.867.598 3.19 1.718.017.057.014.114.017.171l5.828-1.66a.69.69 0 01.858.484.704.704 0 01-.481.867L3.345 7.494a.56.56 0 01-.185.027z" fill="#5CB615" fill-rule="nonzero"/></svg>
